client/src/assets/images/icon-oral-solution.svg

<svg fill="none" height="121" viewBox="0 0 85 121" width="85" xmlns="http://www.w3.org/2000/svg"><g fill="#06b9ff"><path d="m75.1791 27.3012c1.4794-1.7484 2.4208-3.9002 2.4208-6.4555v-11.16253c0-5.37954-4.3037-9.68317-9.6832-9.68317h-50.8367c-5.3795 0-9.68313 4.30363-9.68313 9.68317v11.16253c0 2.4208.94142 4.7071 2.42079 6.4555-5.783 2.9587-9.81766 9.0107-9.81766 16.0041v59.0407c0 9.952 8.06931 17.887 17.887 17.887h49.2228c9.9521 0 17.8869-8.07 17.8869-17.887v-59.0407c.1345-6.9934-3.9001-13.0454-9.8176-16.0041zm-58.0991-2.0174c-2.4208 0-4.4381-2.0173-4.4381-4.4381v-11.16253c0-2.42079 2.0173-4.43812 4.4381-4.43812h50.8367c2.4208 0 4.4381 2.01733 4.4381 4.43812v11.16253c0 2.4208-2.0173 4.4381-4.4381 4.4381h-.8069-49.2228zm62.6717 76.9272c0 6.994-5.6485 12.642-12.6419 12.642h-49.2228c-6.9934 0-12.64195-5.648-12.64195-12.642v-58.9057c0-6.9934 5.64855-12.6419 12.64195-12.6419h49.2228c6.9934 0 12.6419 5.6485 12.6419 12.6419z"/><path d="m20.0388 6.99414h-3.9001v16.40756h3.9001z"/><path d="m32.4114 6.99414h-3.9002v16.40756h3.9002z"/><path d="m45.323 6.99414h-3.9001v16.40756h3.9001z"/><path d="m57.5611 6.99414h-3.9002v16.40756h3.9002z"/><path d="m68.7229 6.99414h-3.9001v16.40756h3.9001z"/><path d="m3.49598 62.4054s9.81762-20.8457 29.31852-9.0107c19.5008 11.835 47.4744 13.1798 49.3573 4.3036v45.3227l-3.3623 9.952-7.6658 4.707h-55.8127l-9.01076-4.976s-5.11057-16.1385-4.97608-16.811c.13449-.6724 2.15182-33.4876 2.15182-33.4876z"/><path d="m53.6616 46.1294c3.3424 0 6.052-2.7096 6.052-6.052s-2.7096-6.052-6.052-6.052-6.052 2.7096-6.052 6.052 2.7096 6.052 6.052 6.052z"/><path d="m69.5299 52.8566c2.5996 0 4.7071-2.1075 4.7071-4.7071 0-2.5997-2.1075-4.7071-4.7071-4.7071-2.5997 0-4.7071 2.1074-4.7071 4.7071 0 2.5996 2.1074 4.7071 4.7071 4.7071z"/><path d="m57.5622 56.8886c2.2283 0 4.0347-1.8063 4.0347-4.0346s-1.8064-4.0347-4.0347-4.0347c-2.2282 0-4.0346 1.8064-4.0346 4.0347s1.8064 4.0346 4.0346 4.0346z"/></g></svg>

<svg width="85" height="121" viewBox="0 0 85 121" fill="none" xmlns="http://www.w3.org/2000/svg">
<path d="M75.1791 27.3012C76.6585 25.5528 77.5999 23.401 77.5999 20.8457V9.68317C77.5999 4.30363 73.2962 0 67.9167 0H17.08C11.7005 0 7.39687 4.30363 7.39687 9.68317V20.8457C7.39687 23.2665 8.33829 25.5528 9.81766 27.3012C4.03466 30.2599 0 36.3119 0 43.3053V102.346C0 112.298 8.06931 120.233 17.887 120.233H67.1098C77.0619 120.233 84.9967 112.163 84.9967 102.346V43.3053C85.1312 36.3119 81.0966 30.2599 75.1791 27.3012ZM17.08 25.2838C14.6592 25.2838 12.6419 23.2665 12.6419 20.8457V9.68317C12.6419 7.26238 14.6592 5.24505 17.08 5.24505H67.9167C70.3375 5.24505 72.3548 7.26238 72.3548 9.68317V20.8457C72.3548 23.2665 70.3375 25.2838 67.9167 25.2838H67.1098H17.887H17.08ZM79.7517 102.211C79.7517 109.205 74.1032 114.853 67.1098 114.853H17.887C10.8936 114.853 5.24505 109.205 5.24505 102.211V43.3053C5.24505 36.3119 10.8936 30.6634 17.887 30.6634H67.1098C74.1032 30.6634 79.7517 36.3119 79.7517 43.3053V102.211Z" fill="#06B9FF"/>
<path d="M20.0388 6.99414H16.1387V23.4017H20.0388V6.99414Z" fill="#06B9FF"/>
<path d="M32.4114 6.99414H28.5112V23.4017H32.4114V6.99414Z" fill="#06B9FF"/>
<path d="M45.323 6.99414H41.4229V23.4017H45.323V6.99414Z" fill="#06B9FF"/>
<path d="M57.5611 6.99414H53.6609V23.4017H57.5611V6.99414Z" fill="#06B9FF"/>
<path d="M68.7229 6.99414H64.8228V23.4017H68.7229V6.99414Z" fill="#06B9FF"/>
<path d="M3.49598 62.4054C3.49598 62.4054 13.3136 41.5597 32.8145 53.3947C52.3153 65.2297 80.2889 66.5745 82.1718 57.6983V103.021L78.8095 112.973L71.1437 117.68H15.331L6.32024 112.704C6.32024 112.704 1.20967 96.5655 1.34416 95.893C1.47865 95.2206 3.49598 62.4054 3.49598 62.4054Z" fill="#06B9FF"/>
<path d="M53.6616 46.1294C57.004 46.1294 59.7136 43.4198 59.7136 40.0774C59.7136 36.735 57.004 34.0254 53.6616 34.0254C50.3192 34.0254 47.6096 36.735 47.6096 40.0774C47.6096 43.4198 50.3192 46.1294 53.6616 46.1294Z" fill="#06B9FF"/>
<path d="M69.5299 52.8566C72.1295 52.8566 74.237 50.7491 74.237 48.1495C74.237 45.5498 72.1295 43.4424 69.5299 43.4424C66.9302 43.4424 64.8228 45.5498 64.8228 48.1495C64.8228 50.7491 66.9302 52.8566 69.5299 52.8566Z" fill="#06B9FF"/>
<path d="M57.5622 56.8886C59.7905 56.8886 61.5969 55.0823 61.5969 52.854C61.5969 50.6257 59.7905 48.8193 57.5622 48.8193C55.334 48.8193 53.5276 50.6257 53.5276 52.854C53.5276 55.0823 55.334 56.8886 57.5622 56.8886Z" fill="#06B9FF"/>
</svg>
